packages/sources/icons/src/vitamix/itinerary.svg

<svg width="24" height="24" viewBox="0 0 24 24" fill="none" xmlns="http://www.w3.org/2000/svg">
<path fill-rule="evenodd" clip-rule="evenodd" d="M16.2803 11.0303L14.0303 13.2803C13.7374 13.5732 13.2626 13.5732 12.9697 13.2803C12.6768 12.9874 12.6768 12.5126 12.9697 12.2197L13.9393 11.25H10.5V15C10.5 15.4142 10.1642 15.75 9.75 15.75C9.33579 15.75 9 15.4142 9 15V10.5C9 10.0858 9.33579 9.75 9.75 9.75H13.9393L12.9697 8.78033C12.6768 8.48744 12.6768 8.01256 12.9697 7.71967C13.2626 7.42678 13.7374 7.42678 14.0303 7.71967L16.2803 9.96967C16.4161 10.1054 16.5 10.2929 16.5 10.5C16.5 10.7071 16.4161 10.8946 16.2803 11.0303ZM12.5303 1.71967L22.2803 11.4697C22.5732 11.7626 22.5732 12.2374 22.2803 12.5303L12.5303 22.2803C12.3839 22.4268 12.1919 22.5 12 22.5C11.8081 22.5 11.6161 22.4268 11.4697 22.2803L1.71967 12.5303C1.42678 12.2374 1.42678 11.7626 1.71967 11.4697L11.4697 1.71967C11.7626 1.42678 12.2374 1.42678 12.5303 1.71967ZM12 3.31064L3.3107 12L12 20.6893L20.6894 12L12 3.31064Z" fill="#001018"/>
</svg>

<svg width="24" height="24" fill="none" xmlns="http://www.w3.org/2000/svg"><path fill-rule="evenodd" clip-rule="evenodd" d="m16.28 11.03-2.25 2.25a.75.75 0 1 1-1.06-1.06l.97-.97H10.5V15A.75.75 0 0 1 9 15v-4.5a.75.75 0 0 1 .75-.75h4.19l-.97-.97a.75.75 0 0 1 1.06-1.06l2.25 2.25a.747.747 0 0 1 0 1.06zm-3.75-9.31 9.75 9.75a.75.75 0 0 1 0 1.06l-9.75 9.75a.747.747 0 0 1-1.06 0l-9.75-9.75a.75.75 0 0 1 0-1.06l9.75-9.75a.75.75 0 0 1 1.06 0zM12 3.31 3.31 12 12 20.69 20.69 12 12 3.31z" fill="#001018"/></svg>
